svgs/regular/user-doctor.svg

<svg xmlns="http://www.w3.org/2000/svg" viewBox="0 0 448 512"><!-- Font Awesome Pro 6.0.0-alpha2 by @fontawesome - https://fontawesome.com License - https://fontawesome.com/license (Commercial License) --><path d="M224 256C294.693 256 352 198.691 352 128C352 57.307 294.693 0 224 0S96 57.307 96 128C96 198.691 153.307 256 224 256ZM224 48C268.111 48 304 83.887 304 128C304 172.111 268.111 208 224 208S144 172.111 144 128C144 83.887 179.889 48 224 48ZM272 304H176C78.953 304 0 382.953 0 480V488C0 501.25 10.75 512 24 512S48 501.25 48 488V480C48 423.475 85.076 375.941 136 359.033V402.602C109.629 410.51 91.293 437.002 97.066 467.076C101.111 488.143 117.742 505.625 138.643 510.455C175.371 518.943 208 491.281 208 456C208 430.672 191.076 409.521 168 402.602V352.809C170.697 352.639 173.26 352 176 352H272C274.74 352 277.303 352.639 280 352.809V402.611C256.951 409.549 240 430.723 240 456V496C240 504.844 247.156 512 256 512S272 504.844 272 496V456C272 442.766 282.766 432 296 432S320 442.766 320 456V496C320 504.844 327.156 512 336 512S352 504.844 352 496V456C352 430.723 335.049 409.549 312 402.611V359.033C362.924 375.941 400 423.475 400 480V488C400 501.25 410.75 512 424 512S448 501.25 448 488V480C448 382.953 369.047 304 272 304ZM176 456C176 469.232 165.234 480 152 480C138.768 480 128 469.232 128 456C128 442.766 138.768 432 152 432C165.234 432 176 442.766 176 456Z"/></svg>

<svg xmlns="http://www.w3.org/2000/svg" viewBox="0 0 448 512"><!--! Font Awesome Pro 6.0.0-alpha3 by @fontawesome - https://fontawesome.com License - https://fontawesome.com/license (Commercial License) --><path d="M224 256c70.69 0 128-57.31 128-128c0-70.69-57.31-128-128-128S96 57.31 96 128C96 198.7 153.3 256 224 256zM224 48c44.11 0 80 35.89 80 80c0 44.11-35.89 80-80 80S144 172.1 144 128C144 83.89 179.9 48 224 48zM272 304h-96C78.95 304 0 382.1 0 480v8C0 501.3 10.75 512 24 512s24-10.75 24-24V480c0-56.53 37.08-104.1 88-120.1v43.57c-26.37 7.908-44.71 34.4-38.93 64.47c4.045 21.07 20.68 38.55 41.58 43.38C175.4 518.9 208 491.3 208 456c0-25.33-16.92-46.48-40-53.4v-49.79C170.7 352.6 173.3 352 176 352h96c2.74 0 5.303 .6387 8 .8086v49.8c-23.05 6.938-39.81 28.11-39.81 53.39L240 496c0 8.844 7.156 16 16 16s16-7.156 16-16v-40c0-13.23 10.77-24 24-24S320 442.8 320 456v40c0 8.844 7.156 16 16 16s16-7.156 16-16v-40c0-25.28-16.95-46.45-40-53.39v-43.58C362.9 375.9 400 423.5 400 480v8c0 13.25 10.75 24 24 24S448 501.3 448 488V480C448 382.1 369 304 272 304zM176 456C176 469.2 165.2 480 152 480C138.8 480 128 469.2 128 456c0-13.23 10.77-24 24-24C165.2 432 176 442.8 176 456z"/></svg>
